X:1
T:Father John Angus Rankin
M:4/4
L:1/8
C:Jerry Holland
R:March
K:A
AB |\
"A"c2{c}e2 e2de | "D"f2e2 "A"e2AB | "A"c2{c}e2 "(F#m)"ecAB | "Bm"{c}c2B2 "E"B2AB |\
"A"c2{c}e2 e2de | "D"f2e2 "A"e2Ac | "D"def>d "E"e>cd>B | "A"c2A2 A2 :|
fg |\
"A"a2A2 "D"f>edc | "A"f2e2 "E7"e2fg | "A"a2A2 "D"fedc | "E"c2B2 B2fg |\
"A"a2A2 "D"f>edc | "A"f2e2 e2Ac | "D"def>d "E"e>cd>B | "A"c2A2 A2 ||
fg |\
"A"a2A2 "D"f>edc | "A"f2e2 "E7"e2fg | "A"a2A2 "D"fedc | "E"c2B2 B2AB |\
"A"cAcd {d}e2 ce | "D"fdfg {g}a3e | "D"def>d "E"e>cd>B | "A"c2A2 A2 |]
